; generated by PrusaSlicer 2.3.0+win64 on 2021-03-03 at 14:04:25 UTC


;
;
; 

; external perimeters extrusion width = 0.45mm
; perimeters extrusion width = 0.45mm
; infill extrusion width = 0.45mm
; solid infill extrusion width = 0.45mm
; top infill extrusion width = 0.40mm
; first layer extrusion width = 0.42mm

M73 P0 R84
M107
;TYPE:Custom
M302 S00 P1
G1 Y0 Z0.300 F9001 ; go to front edge of the bed
G92 E0.0 ; reset extruder position
G1 X60.0 E9.0 F1000.0 ; intro line
G1 X100.0 E12.5 F1000.0 ; intro line
G92 E0.0 ; reset extruder position
G21 ; set units to millimeters
G90 ; use absolute coordinates
M82 ; use absolute distances for extrusion
G92 E0
;LAYER_CHANGE
;Z:0.3
;HEIGHT:0.3
G1 Z0.300 F7800.000
G1 E-2.00000 F1500.000
G92 E0
G1 X119.539 Y139.972 F7800.000
G1 E2.00000 F1500.000
;TYPE:Skirt
;WIDTH:0.42
G1 F1800.000
G1 X120.759 Y138.749 E2.07660
G1 X121.656 Y138.124 E2.12509
G1 X122.681 Y137.604 E2.17609
G1 X123.773 Y137.233 E2.22722
G1 X124.923 Y137.018 E2.27912
G1 X150.007 Y135.509 E3.39374
G1 X152.779 Y135.684 E3.51693
G1 X155.545 Y136.230 E3.64199
G1 X158.271 Y137.158 E3.76970
G1 X160.770 Y138.400 E3.89349
G1 X163.127 Y139.991 E4.01962
G1 X165.251 Y141.882 E4.14575
G1 X167.062 Y143.981 E4.26871
G1 X168.563 Y146.263 E4.38985
G1 X169.204 Y147.775 E4.46270
G1 X169.514 Y149.427 E4.53726
G1 X169.458 Y151.085 E4.61086
G1 X169.037 Y152.715 E4.68554
G1 X168.215 Y154.327 E4.76579
G1 X166.765 Y156.404 E4.87816
G1 X165.216 Y158.155 E4.98184
G1 X163.488 Y159.723 E5.08530
G1 X162.087 Y160.768 E5.16285
G1 X160.565 Y161.716 E5.24238
G1 X159.025 Y162.510 E5.31925
G1 X157.297 Y163.222 E5.40214
G1 X155.556 Y163.767 E5.48306
G1 X153.719 Y164.173 E5.56651
G1 X152.028 Y164.399 E5.64216
G1 X150.190 Y164.491 E5.72380
G1 X124.711 Y162.955 E6.85598
G1 X123.226 Y162.603 E6.92363
G1 X121.812 Y161.967 E6.99243
G1 X120.620 Y161.135 E7.05690
G1 X119.542 Y160.031 E7.12533
G1 X118.893 Y159.096 E7.17584
G1 X118.377 Y158.064 E7.22699
G1 X118.015 Y156.981 E7.27766
G1 X117.806 Y155.864 E7.32804
G1 X117.749 Y154.920 E7.37001
G1 X117.762 Y144.639 E7.82602
G1 X118.028 Y142.968 E7.90107
G1 X118.641 Y141.364 E7.97721
G1 X119.507 Y140.022 E8.04805
;WIPE_START
G1 F6240.000
G1 X120.759 Y138.749 E7.64024
G1 X121.656 Y138.124 E7.39060
G1 X122.681 Y137.604 E7.12802
G1 X123.773 Y137.233 E6.86478
G1 X124.923 Y137.018 E6.59754
G1 X126.888 Y136.900 E6.14805
;WIPE_END
G1 E6.04805 F1500.000
G92 E0
G1 X149.248 Y148.088 F7800.000
G1 E2.00000 F1500.000
;TYPE:External perimeter
G1 F1800.000
G1 X149.419 Y148.147 E2.00799
G1 X149.572 Y148.236 E2.01587
G1 X149.703 Y148.363 E2.02396
G1 X149.813 Y148.511 E2.03214
G1 X149.907 Y148.705 E2.04169
G1 X149.998 Y149.045 E2.05731
G1 X150.115 Y149.277 E2.06885
G1 X150.223 Y149.009 E2.08169
G1 X150.352 Y149.095 E2.08854
G1 X150.464 Y148.663 E2.10833
G1 X150.583 Y148.453 E2.11902
G1 X150.845 Y148.206 E2.13502
G1 X151.096 Y148.092 E2.14723
G1 X151.372 Y148.097 E2.15948
G1 X151.545 Y148.164 E2.16770
G1 X151.696 Y148.262 E2.17570
G1 X151.919 Y148.501 E2.19017
G1 X152.000 Y148.858 E2.20643
G1 X151.955 Y149.290 E2.22567
G1 X151.638 Y149.878 E2.25531
G1 X151.267 Y150.490 E2.28704
G1 X151.194 Y150.710 E2.29734
G1 X151.230 Y150.852 E2.30385
G1 X151.955 Y152.063 E2.36645
G1 X152.086 Y152.423 E2.38346
G1 X152.103 Y152.726 E2.39690
G1 X152.036 Y153.014 E2.41002
G1 X151.878 Y153.250 E2.42263
G1 X151.655 Y153.411 E2.43481
G1 X151.386 Y153.496 E2.44734
G1 X151.101 Y153.498 E2.45999
G1 X150.901 Y153.443 E2.46916
G1 X150.687 Y153.298 E2.48062
G1 X150.568 Y153.160 E2.48871
G1 X150.475 Y152.996 E2.49707
G1 X150.357 Y152.659 E2.51290
G1 X150.319 Y152.416 E2.52384
G1 X150.058 Y152.318 E2.53622
G1 X149.952 Y152.365 E2.54138
G1 X149.906 Y152.456 E2.54589
G1 X149.900 Y152.576 E2.55124
G1 X149.730 Y153.012 E2.57198
G1 X149.562 Y153.241 E2.58459
G1 X149.415 Y153.371 E2.59331
G1 X149.147 Y153.461 E2.60584
G1 X148.881 Y153.434 E2.61768
G1 X148.636 Y153.328 E2.62956
G1 X148.434 Y153.118 E2.64246
G1 X148.353 Y152.877 E2.65375
G1 X148.346 Y152.680 E2.66250
G1 X148.382 Y152.424 E2.67397
G1 X148.469 Y152.058 E2.69067
G1 X148.785 Y151.353 E2.72490
G1 X148.911 Y151.133 E2.73617
G1 X149.179 Y150.769 E2.75621
G1 X148.947 Y150.419 E2.77481
G1 X148.423 Y149.491 E2.82209
G1 X148.308 Y149.205 E2.83577
G1 X148.266 Y149.019 E2.84421
G1 X148.258 Y148.844 E2.85198
G1 X148.284 Y148.673 E2.85967
G1 X148.359 Y148.495 E2.86820
G1 X148.467 Y148.353 E2.87613
G1 X148.612 Y148.232 E2.88453
G1 X148.782 Y148.144 E2.89301
G1 X149.052 Y148.080 E2.90532
G1 X149.189 Y148.085 E2.91138
G1 X149.365 Y147.951 F7800.000
;WIPE_START
G1 F6240.000
G1 X149.419 Y148.147 E2.85696
G1 X149.572 Y148.236 E2.81641
G1 X149.703 Y148.363 E2.77476
G1 X149.813 Y148.511 E2.73260
G1 X149.907 Y148.705 E2.68344
G1 X149.998 Y149.045 E2.60302
G1 X150.115 Y149.277 E2.54361
G1 X150.223 Y149.009 E2.47752
G1 X150.352 Y149.095 E2.44223
G1 X150.464 Y148.663 E2.34033
G1 X150.583 Y148.453 E2.28533
G1 X150.845 Y148.206 E2.20294
G1 X151.096 Y148.092 E2.14007
G1 X151.372 Y148.097 E2.07699
G1 X151.545 Y148.164 E2.03466
G1 X151.696 Y148.262 E1.99347
G1 X151.919 Y148.501 E1.91899
G1 X152.000 Y148.858 E1.83529
G1 X151.955 Y149.290 E1.73619
G1 X151.638 Y149.878 E1.58360
G1 X151.267 Y150.490 E1.42023
G1 X151.194 Y150.710 E1.36724
G1 X151.230 Y150.852 E1.33370
G1 X151.955 Y152.063 E1.01140
G1 X151.955 Y152.063 E1.01138
;WIPE_END
G1 E0.91138 F1500.000
G92 E0
G1 X146.195 Y151.203 F7800.000
G1 E2.00000 F1500.000
G1 F1800.000
G1 X146.523 Y151.030 E2.01648
G1 X146.779 Y150.988 E2.02798
G1 X147.032 Y150.993 E2.03917
G1 X147.279 Y151.059 E2.05053
G1 X147.509 Y151.174 E2.06194
G1 X147.706 Y151.334 E2.07319
G1 X147.864 Y151.532 E2.08442
G1 X147.977 Y151.758 E2.09564
G1 X148.036 Y152.002 E2.10675
G1 X148.034 Y152.239 E2.11728
G1 X147.936 Y152.928 E2.14818
G1 X147.845 Y153.158 E2.15912
G1 X147.712 Y153.356 E2.16969
G1 X147.511 Y153.535 E2.18162
G1 X147.292 Y153.666 E2.19294
G1 X147.044 Y153.744 E2.20448
G1 X146.675 Y153.773 E2.22092
G1 X146.312 Y153.698 E2.23736
G1 X146.079 Y153.590 E2.24875
G1 X145.872 Y153.441 E2.26006
G1 X145.706 Y153.250 E2.27129
G1 X145.578 Y153.028 E2.28265
G1 X145.515 Y152.783 E2.29388
G1 X145.501 Y152.537 E2.30478
G1 X145.630 Y151.950 E2.33146
G1 X145.724 Y151.751 E2.34119
G1 X145.845 Y151.581 E2.35048
G1 X146.154 Y151.247 E2.37065
G1 X146.163 Y150.833 F7800.000
;WIPE_START
G1 F6240.000
G1 X146.523 Y151.030 E2.27279
G1 X146.779 Y150.988 E2.21357
G1 X147.032 Y150.993 E2.15595
G1 X147.279 Y151.059 E2.09746
G1 X147.509 Y151.174 E2.03870
G1 X147.706 Y151.334 E1.98079
G1 X147.864 Y151.532 E1.92299
G1 X147.977 Y151.758 E1.86518
G1 X148.036 Y152.002 E1.80801
G1 X148.034 Y152.239 E1.75381
G1 X147.936 Y152.928 E1.59472
G1 X147.845 Y153.158 E1.53835
G1 X147.712 Y153.356 E1.48394
G1 X147.511 Y153.535 E1.42252
G1 X147.292 Y153.666 E1.36427
G1 X147.044 Y153.744 E1.30485
G1 X146.675 Y153.773 E1.22017
G1 X146.312 Y153.698 E1.13557
G1 X146.079 Y153.590 E1.07691
G1 X145.872 Y153.441 E1.01866
G1 X145.706 Y153.250 E0.96088
G1 X145.578 Y153.028 E0.90237
G1 X145.515 Y152.783 E0.84457
G1 X145.501 Y152.537 E0.78843
G1 X145.630 Y151.950 E0.65105
G1 X145.724 Y151.751 E0.60099
G1 X145.845 Y151.581 E0.55316
G1 X146.091 Y151.316 E0.47065
;WIPE_END
G1 E0.37065 F1500.000
G92 E0
G1 X140.906 Y146.905 F7800.000
G1 E2.00000 F1500.000
G1 F1800.000
G1 X141.055 Y146.789 E2.00834
G1 X141.387 Y146.660 E2.02415
G1 X141.724 Y146.624 E2.03919
G1 X143.355 Y146.661 E2.11153
G1 X143.963 Y146.750 E2.13880
G1 X144.435 Y146.897 E2.16074
G1 X144.840 Y147.122 E2.18127
G1 X145.170 Y147.407 E2.20063
G1 X145.484 Y147.805 E2.22312
G1 X145.734 Y148.281 E2.24697
G1 X145.910 Y148.823 E2.27221
G1 X146.010 Y149.457 E2.30068
G1 X146.026 Y149.991 E2.32440
G1 X145.957 Y150.543 E2.34908
G1 X145.840 Y150.884 E2.36505
G1 X145.640 Y151.276 E2.38458
G1 X145.500 Y151.639 E2.40187
G1 X145.020 Y152.477 E2.44466
G1 X144.851 Y152.690 E2.45675
G1 X144.538 Y152.937 E2.47443
G1 X144.311 Y153.057 E2.48583
G1 X143.956 Y153.174 E2.50242
G1 X143.390 Y153.266 E2.52783
G1 X142.853 Y153.294 E2.55171
G1 X142.042 Y153.286 E2.58765
G1 X141.504 Y153.329 E2.61158
G1 X141.248 Y153.280 E2.62315
G1 X141.079 Y153.189 E2.63164
G1 X140.945 Y153.067 E2.63970
G1 X140.810 Y152.846 E2.65121
G1 X140.729 Y152.576 E2.66368
G1 X140.702 Y152.270 E2.67732
G1 X140.719 Y151.664 E2.70420
G1 X140.724 Y148.056 E2.86426
G1 X140.686 Y147.600 E2.88454
G1 X140.691 Y147.328 E2.89662
G1 X140.787 Y147.054 E2.90947
G1 X140.869 Y146.952 E2.91529
G1 X140.854 Y146.724 F7800.000
G1 X140.368 Y148.565
;TYPE:Perimeter
G1 F1800.000
G1 X140.366 Y150.075 E2.98227
G1 X140.200 Y150.112 E2.98984
G1 X140.079 Y149.858 E3.00230
G1 X139.845 Y149.612 E3.01738
G1 X139.630 Y149.483 E3.02849
G1 X139.901 Y149.273 E3.04369
G1 X140.079 Y148.971 E3.05922
G1 X140.179 Y148.543 E3.07873
G1 X140.309 Y148.558 E3.08452
G1 X139.022 Y149.509 F7800.000
;TYPE:External perimeter
G1 F1800.000
G1 X139.299 Y149.649 E3.09832
G1 X139.485 Y149.810 E3.10920
G1 X139.621 Y149.892 E3.11622
G1 X139.782 Y150.062 E3.12664
G1 X139.984 Y150.488 E3.14757
G1 X140.088 Y150.884 E3.16572
G1 X140.122 Y151.231 E3.18117
G1 X140.073 Y151.682 E3.20128
G1 X139.919 Y152.143 E3.22285
G1 X139.737 Y152.474 E3.23961
G1 X139.590 Y152.674 E3.25061
G1 X139.420 Y152.855 E3.26163
G1 X139.051 Y153.139 E3.28228
G1 X138.721 Y153.302 E3.29859
G1 X138.268 Y153.425 E3.31945
G1 X137.867 Y153.465 E3.33732
G1 X137.432 Y153.458 E3.35659
G1 X137.038 Y153.404 E3.37425
G1 X136.709 Y153.312 E3.38940
G1 X136.417 Y153.181 E3.40360
G1 X136.171 Y153.007 E3.41693
G1 X135.975 Y152.781 E3.43023
G1 X135.855 Y152.534 E3.44242
G1 X135.793 Y152.244 E3.45556
G1 X135.810 Y151.948 E3.46873
G1 X135.915 Y151.680 E3.48148
G1 X136.097 Y151.475 E3.49362
G1 X136.257 Y151.376 E3.50197
G1 X136.429 Y151.311 E3.51016
G1 X136.713 Y151.273 E3.52283
G1 X137.059 Y151.322 E3.53836
G1 X137.319 Y151.438 E3.55096
G1 X137.731 Y151.738 E3.57359
G1 X137.810 Y151.758 E3.57718
G1 X137.927 Y151.732 E3.58249
G1 X138.053 Y151.659 E3.58897
G1 X138.144 Y151.556 E3.59508
G1 X138.201 Y151.425 E3.60142
G1 X138.216 Y151.280 E3.60787
G1 X138.183 Y151.130 E3.61467
G1 X138.087 Y150.951 E3.62368
G1 X137.975 Y150.822 E3.63126
G1 X137.839 Y150.714 E3.63896
G1 X137.689 Y150.638 E3.64641
G1 X137.504 Y150.585 E3.65495
G1 X137.080 Y150.510 E3.67405
G1 X136.844 Y150.418 E3.68530
G1 X136.696 Y150.309 E3.69343
G1 X136.577 Y150.159 E3.70195
G1 X136.507 Y149.993 E3.70992
G1 X136.475 Y149.808 E3.71822
G1 X136.485 Y149.612 E3.72692
G1 X136.562 Y149.348 E3.73913
G1 X136.650 Y149.164 E3.74817
G1 X136.790 Y149.011 E3.75738
G1 X136.943 Y148.916 E3.76537
G1 X137.154 Y148.828 E3.77550
G1 X137.680 Y148.689 E3.79965
G1 X137.771 Y148.638 E3.80426
G1 X137.895 Y148.498 E3.81257
G1 X137.919 Y148.413 E3.81646
G1 X137.887 Y148.268 E3.82307
G1 X137.805 Y148.199 E3.82781
G1 X137.657 Y148.192 E3.83440
G1 X137.481 Y148.245 E3.84254
G1 X137.159 Y148.431 E3.85902
G1 X136.927 Y148.535 E3.87033
G1 X136.715 Y148.596 E3.88011
G1 X136.518 Y148.599 E3.88885
G1 X136.329 Y148.525 E3.89785
G1 X136.104 Y148.328 E3.91110
G1 X135.924 Y148.101 E3.92395
G1 X135.863 Y147.889 E3.93376
G1 X135.857 Y147.569 E3.94793
G1 X135.934 Y147.259 E3.96210
G1 X136.051 Y147.087 E3.97136
G1 X136.344 Y146.834 E3.98850
G1 X136.650 Y146.667 E4.00399
G1 X136.989 Y146.550 E4.01989
G1 X137.361 Y146.483 E4.03665
G1 X137.634 Y146.463 E4.04878
G1 X138.000 Y146.466 E4.06503
G1 X138.299 Y146.499 E4.07839
G1 X138.652 Y146.575 E4.09438
G1 X138.878 Y146.655 E4.10501
G1 X139.176 Y146.816 E4.12005
G1 X139.431 Y147.026 E4.13467
G1 X139.636 Y147.278 E4.14911
G1 X139.745 Y147.473 E4.15902
G1 X139.840 Y147.765 E4.17263
G1 X139.871 Y148.077 E4.18652
G1 X139.865 Y148.323 E4.19746
G1 X139.745 Y148.837 E4.22089
G1 X139.630 Y149.033 E4.23098
G1 X139.445 Y149.177 E4.24137
G1 X139.317 Y149.317 E4.24980
G1 X139.072 Y149.476 E4.26273
G1 X139.332 Y149.537 F7800.000
;WIPE_START
G1 F6240.000
G1 X139.299 Y149.649 E4.19748
G1 X139.485 Y149.810 E4.14144
G1 X139.621 Y149.892 E4.10528
G1 X139.782 Y150.062 E4.05163
G1 X139.984 Y150.488 E3.94388
G1 X140.088 Y150.884 E3.85046
G1 X140.122 Y151.231 E3.77088
G1 X140.073 Y151.682 E3.66738
G1 X139.919 Y152.143 E3.55633
G1 X139.737 Y152.474 E3.47004
G1 X139.590 Y152.674 E3.41337
G1 X139.420 Y152.855 E3.35663
G1 X139.051 Y153.139 E3.25032
G1 X138.721 Y153.302 E3.16636
G1 X138.268 Y153.425 E3.05898
G1 X137.867 Y153.465 E2.96696
G1 X137.432 Y153.458 E2.86771
G1 X137.038 Y153.404 E2.77680
G1 X136.709 Y153.312 E2.69879
G1 X136.417 Y153.181 E2.62571
G1 X136.171 Y153.007 E2.55707
G1 X135.975 Y152.781 E2.48859
G1 X135.855 Y152.534 E2.42584
G1 X135.797 Y152.263 E2.36273
;WIPE_END
G1 E2.26273 F1500.000
G92 E0
G1 X154.627 Y156.045 F7800.000
G1 E2.00000 F1500.000
;TYPE:Perimeter
G1 F1800.000
G1 X154.735 Y155.958 E2.00612
G1 X155.010 Y155.606 E2.02592
G1 X155.178 Y155.322 E2.04056
G1 X155.482 Y154.653 E2.07319
G1 X156.115 Y152.970 E2.15290
G1 X156.254 Y153.345 E2.17062
G1 X156.449 Y153.657 E2.18692
G1 X156.695 Y153.903 E2.20235
G1 X157.007 Y154.094 E2.21859
G1 X157.427 Y154.211 E2.23794
G1 X157.737 Y154.226 E2.25169
G1 X158.151 Y154.201 E2.27009
G1 X158.203 Y154.355 E2.27728
G1 X157.486 Y154.846 E2.31585
G1 X156.569 Y155.382 E2.36299
G1 X156.024 Y155.659 E2.39008
G1 X155.472 Y155.908 E2.41696
G1 X154.904 Y156.135 E2.44409
G1 X154.715 Y156.202 E2.45297
G1 X154.657 Y156.097 E2.45827
;WIPE_START
G1 F6240.000
G1 X154.735 Y155.958 E2.42182
G1 X155.010 Y155.606 E2.31989
G1 X155.178 Y155.322 E2.24451
G1 X155.482 Y154.653 E2.07655
G1 X156.115 Y152.970 E1.66613
G1 X156.254 Y153.345 E1.57491
G1 X156.449 Y153.657 E1.49097
G1 X156.695 Y153.903 E1.41151
G1 X157.007 Y154.094 E1.32791
G1 X157.427 Y154.211 E1.22829
G1 X157.737 Y154.226 E1.15749
G1 X158.151 Y154.201 E1.06276
G1 X158.203 Y154.355 E1.02573
G1 X157.486 Y154.846 E0.82714
G1 X156.569 Y155.382 E0.58448
G1 X156.466 Y155.434 E0.55828
;WIPE_END
G1 E0.45827 F1500.000
G92 E0
G1 X152.301 Y156.677 F7800.000
G1 E2.00000 F1500.000
G1 F1800.000
G1 X152.278 Y156.830 E2.00685
G1 X151.447 Y156.943 E2.04406
G1 X150.889 Y156.988 E2.06892
G1 X149.986 Y157.014 E2.10897
G1 X149.185 Y156.986 E2.14450
G1 X125.873 Y155.561 E3.18044
G1 X125.629 Y155.520 E3.19141
G1 X125.445 Y155.422 E3.20067
G1 X125.316 Y155.261 E3.20982
G1 X125.259 Y155.118 E3.21663
G1 X125.229 Y154.921 E3.22547
G1 X125.223 Y153.312 E3.29687
G1 X125.504 Y153.545 E3.31308
G1 X126.048 Y153.857 E3.34087
G1 X126.384 Y153.990 E3.35690
G1 X126.753 Y154.091 E3.37389
G1 X127.106 Y154.151 E3.38978
G1 X127.636 Y154.179 E3.41329
G1 X128.139 Y154.146 E3.43566
G1 X128.605 Y154.055 E3.45670
G1 X129.050 Y153.897 E3.47767
G1 X129.455 Y153.671 E3.49824
G1 X129.815 Y153.379 E3.51882
G1 X130.115 Y153.024 E3.53942
G1 X130.337 Y152.636 E3.55924
G1 X130.484 Y152.228 E3.57847
G1 X130.493 Y151.872 E3.59427
G1 X130.383 Y151.413 E3.61519
G1 X130.181 Y151.078 E3.63252
G1 X129.936 Y150.822 E3.64826
G1 X129.553 Y150.581 E3.66835
G1 X129.227 Y150.467 E3.68364
G1 X128.913 Y150.419 E3.69773
G1 X128.570 Y150.425 E3.71296
G1 X128.111 Y150.550 E3.73407
G1 X127.708 Y150.820 E3.75558
G1 X127.606 Y150.943 E3.76265
G1 X127.471 Y150.926 E3.76871
G1 X127.359 Y150.866 E3.77432
G1 X127.281 Y150.729 E3.78130
G1 X127.234 Y150.558 E3.78918
G1 X127.199 Y150.316 E3.80004
G1 X127.184 Y149.928 E3.81723
G1 X127.203 Y149.581 E3.83268
G1 X127.238 Y149.359 E3.84264
G1 X127.331 Y149.098 E3.85493
G1 X127.426 Y149.017 E3.86044
G1 X127.508 Y148.997 E3.86419
G1 X128.148 Y149.365 E3.89693
G1 X128.581 Y149.498 E3.91705
G1 X129.068 Y149.522 E3.93866
G1 X129.582 Y149.362 E3.96252
G1 X129.912 Y149.113 E3.98085
G1 X130.056 Y148.938 E3.99092
G1 X130.146 Y148.995 E3.99562
G1 X130.452 Y149.111 E4.01015
G1 X130.884 Y149.170 E4.02950
G1 X131.161 Y149.138 E4.04186
G1 X131.178 Y151.897 E4.16427
G1 X131.138 Y152.403 E4.18676
G1 X131.157 Y152.795 E4.20419
G1 X131.253 Y153.132 E4.21974
G1 X131.445 Y153.458 E4.23650
G1 X131.716 Y153.718 E4.25314
G1 X132.016 Y153.888 E4.26845
G1 X132.332 Y153.991 E4.28318
G1 X132.655 Y154.034 E4.29766
G1 X132.976 Y154.020 E4.31191
G1 X133.319 Y153.937 E4.32756
G1 X133.748 Y153.703 E4.34924
G1 X134.097 Y153.310 E4.37251
G1 X134.284 Y152.880 E4.39335
